src/dsmComponents/Icons/information-24px.svg

<?xml version="1.0" encoding="UTF-8"?>
<svg width="24px" height="24px" viewBox="0 0 24 24" version="1.1" xmlns="http://www.w3.org/2000/svg" xmlns:xlink="http://www.w3.org/1999/xlink">
    <!-- Generator: Sketch 59.1 (86144) - https://sketch.com -->
    <title>information-24px</title>
    <desc>Created with Sketch.</desc>
    <defs>
        <path d="M12,0 C18.627417,0 24,5.372583 24,12 C24,18.627417 18.627417,24 12,24 C5.372583,24 0,18.627417 0,12 C0,5.372583 5.372583,0 12,0 Z M12,2 C6.4771525,2 2,6.4771525 2,12 C2,17.5228475 6.4771525,22 12,22 C17.5228475,22 22,17.5228475 22,12 C22,6.4771525 17.5228475,2 12,2 Z M11.959,10 C12.5112847,10 12.959,10.4477153 12.959,11 L12.959,11 L12.959,17 C12.959,17.5522847 12.5112847,18 11.959,18 C11.4067153,18 10.959,17.5522847 10.959,17 L10.959,17 L10.959,11 C10.959,10.4477153 11.4067153,10 11.959,10 Z M11.959,6 C12.5112847,6 12.959,6.44771525 12.959,7 C12.959,7.55228475 12.5112847,8 11.959,8 C11.4067153,8 10.959,7.55228475 10.959,7 C10.959,6.44771525 11.4067153,6 11.959,6 Z" id="path-1"></path>
    </defs>
    <g id="Final" stroke="none" stroke-width="1" fill="none" fill-rule="evenodd">
        <g id="All-Nucleo-Icons" transform="translate(-608.000000, -5919.000000)">
            <g id="Solo/Nucleo/24px/information" transform="translate(608.000000, 5919.000000)">
                <g id="c-info">
                    <g id="Colour/Default-Colour">
                        <mask id="mask-2" fill="white">
                            <use xlink:href="#path-1"></use>
                        </mask>
                        <use id="Mask" fill="#000000" fill-rule="nonzero" xlink:href="#path-1"></use>
                        <g id="colour/neutral/chia" mask="url(#mask-2)" fill="#737373">
                            <g transform="translate(-20.000000, -20.000000)" id="Colour">
                                <rect x="0" y="0" width="64" height="64"></rect>
                            </g>
                        </g>
                    </g>
                </g>
            </g>
        </g>
    </g>
</svg>

<svg width="24" height="24" xmlns="http://www.w3.org/2000/svg" xmlns:xlink="http://www.w3.org/1999/xlink"><defs><path d="M12 0c6.627 0 12 5.373 12 12s-5.373 12-12 12S0 18.627 0 12 5.373 0 12 0zm0 2C6.477 2 2 6.477 2 12s4.477 10 10 10 10-4.477 10-10S17.523 2 12 2zm-.041 8a1 1 0 011 1v6a1 1 0 01-2 0v-6a1 1 0 011-1zm0-4a1 1 0 110 2 1 1 0 010-2z" id="information-24px_svg__a"/></defs><use fill="#737373" xlink:href="#information-24px_svg__a" fill-rule="evenodd"/></svg>
